X:0676
T:The Banks of Clyde.
M:2/4
L:1/8
Q:1/4=120
I: ||
Z:Jack Campin * www.campin.me.uk * 2009
K:G
d>c|B>AG>E      |   e2 ge |dc`BA |B2\
zA |G>ABd       |   e>dcg |f2(gf)|e2
zd |e>def       |   g2 fe |G>ABc |d2\
ef |g>age       |{g}f2(ed)|E2 FA |G2
zd |e>fed       |   B2 dB |AG`FG |E2\
zD |E>FGA       |   B2 Bg |f>edB |e2
zd |cBAG        |   d2 dd |e>gfe |B2\
zf |g>a g/f/e/f/|   gf`ed |E2 FA |G2|]


